X:1
T:Addir Hu, 66.66.66
T:Addir Hu, 66.66.66
T:Hebrew melody, 17th Century
T:Public Domain Courtesy of the Cyber Hymnal™
C:Hebrew melody, 17th Century
Z:Public Domain
Z:Courtesy of the Cyber Hymnal™
%%score ( 1 2 ) ( 3 4 )
L:1/8
M:4/4
K:C
V:1 treble 
V:2 treble 
V:3 bass 
V:4 bass 
V:1
 [CE]2 [CG]2 [B,G]4 | [CE]2 [CG]2 G4 | [CA]2 [FB]2 [Ec]2 [GB][FA] | [FA]4 [EG]2 z2 | %4
 [EG]2 [Ec]2 c2 B[FA] | [EG]2 [Ee]2 [Ec]4 | [EG]2 [CE]2 [CF]2 [FA]2 | G3 F [CE]2 z2 | %8
 [DG]3 [DG] [CE]2 z2 | [DG]3 [DG] [Cc]2 z2 | [EG]2 [Ec]2 [Ge]2 [Ad]2 | [Gc]2 [FB]2 [Ec]4 |] %12
V:2
 x8 | x4 B,2 C2 | x8 | x8 | x4 G3 x | x8 | x8 | D4 x4 | x8 | x8 | x8 | x8 |] %12
V:3
 [C,G,]2 [E,G,]2 G,4 | [C,G,]2 [E,G,]2 G,4 | F,2 [D,G,]2 [C,G,]2 A,B, | (C2 B,2) [C,C]2 z2 | %4
 C2 [A,C]2 C4 | [C,C]2 [C,C]2 [C,G,]4 | [C,C]2 C2 [A,C]2 [F,C]2 | [G,B,]4 [C,C]2 z2 | %8
 [B,,G,]3 [B,,G,] [C,G,]2 z2 | [G,B,]3 [G,B,] [E,G,]2 z2 | [C,G,]2 [C,G,]2 [C,C]2 (A,F) | %11
 E2 D2 [C,C]4 |] %12
V:4
 x4 (D,2 G,,2) | x4 D,2 E,2 | F,2 x2 C,2 x2 | C,4 x4 | C2 E,2 F,2 x2 | x8 | x2 C2 x4 | x8 | x8 | %9
 x8 | x6 F,2 | G,4 x4 |] %12

